X: 19
T:Om sommaren sk\"ona (Dalvisa)
M:6/8
L:1/8
Q:104
C:anon.
O:Sweden
A:Dalarna
Z:Transcribed by Frank Nordberg - http://www.musicaviva.com
K:Cm
G|"Cm"c>cc cde|"Fm7"edc "G7"d2f|"Cm"g>ag gfe|"D7"e3"G7"d2:|g|"Cm"e>fe "E
b7"efg|
"F7"gfe"Bb"f2g|"Eb"e>fe "Cm"efg|"Ab"gfe"Bb"f2"G7"g|"Cm"e>dc "Fm6"dc"G7"=
B|"Cm"c3c2|]
W:
W: From "Falaleiro" http://home.t-online.de/home/pheld/homepage.htm

